X: 20409
T: John Donald Of Coullie
R: polka
M: 2/4
K: Gmajor
& for the finale ~ 2/4|G2 (3def|.g2||8-)
AAAA G2 G2|F2 F2 E4|cAGA d2 B2|F4 F4|
BBBB A2 A2|G2 G2 F4|EEEE d2 d2|c2 E2 E2 G2|
AAAA G2 G2|F2 F2 E4|cAGA d2 B2|F4 F4|
BBBB F2 F2|cccc E2 E2|FFFF G2 G2|c2 B2 A2||
cccc A2 c2|f2 e2 c4|aecA G2 A2|d2 f2 F4|
BBBB ^A2 B2|g2 g2 g4|ffff dcBG|A2 a2 e2 fg|
a2 A2 cABc|F2 A2 E4|cAGA B2 A2|f4 f2 a2|
gggg f2 f2|eeee d2 d2|FFFF c2 B2|A2 E2 F2||
GGGG F2 F2|E2 E2 D4|BGFG c2 A2|E4- E4|
AAAA G4|F2 F2 E4|DDDD c2 A2|B2 D2 E3 F|
GGGG F2 F2|EEEE D2 D2|BGFG g2 f2|e4- e4|
AAAA e2 e2|BBBB d4|EEEE F2 F2|G4- G2||
BBBB G2 B2|e2 d2 B4|gdBG FGAB|c2 e2 E3 e|
AAAA ^G3 A|f2 e2 c3 A|eeee c2 A2|G2 g2 DGBd|
g2 G2 BGAB|E2 G2 D4|BGFG AGFG|e4- e2 g2|
ffff e2 e2|dddd c4|EEEE B2 A2|G4- G2||

